X: 80
T: Everything Will Be Right
N: Derived from pawnee80.krn
O: Oklahoma, U.S.A.
N: from Pawnee Music by Frances Densmore, 1926
Z: transcribed to **kern format by David Huron, August 2000
C: Skidi and Chaui Bands, 1919
L: 1/8
M: 2/4
Q: 1/4=88
K: C clef=treble
%%linebreak <none>
C4- | 
C2C2 | 
c cc2[M:3/4] | 
G6 | 
c2c GF2[M:2/4] | 
(3D D D C C[M:3/4] | 
D4D z | 
F2F2(3D D C[M:2/4] | 
D2(3C C C[M:3/4] | 
C6- | 
C6- | 
C6- | 
C2C4[M:2/4] | 
C3C[M:3/4] | 
C2C4 | 
G6 | 
A2A GF2 | 
D4(3C C C | 
D4D z | 
F2F2(3D D C[M:2/4] | 
(3D D C (3C C C[M:3/4] | 
C6 | 
C2C2(3C C C | 
G,6 | 
G,2G,2(3G, G, G, | 
G,6 |]  



